icon-themes/colibre_svg/res/savemodified_extralarge.svg

<svg viewBox="0 0 32 32" xmlns="http://www.w3.org/2000/svg"><path d="m4 3c-.554 0-1 .446-1 1v24c0 .554.446 1 1 1h19.541016a4 4 0 0 1 -.541016-2 4 4 0 0 1 4-4 4 4 0 0 1 2 .541016v-19.541016c0-.554-.446-1-1-1z" fill="#8959ab"/><path d="m8 17c-.554 0-1 .446-1 1v8c0 .554.446 1 1 1h3v-8h3v8h8c .554 0 1-.446 1-1v-8c0-.554-.446-1-1-1z" fill="#fff"/><rect fill="#fff" height="9" ry="1" width="20" x="6" y="5"/><circle cx="27" cy="27" fill="#eac282" r="3"/></svg>

<svg viewBox="0 0 32 32" xmlns="http://www.w3.org/2000/svg">
  <path
     d="M 4 3 C 3.446 3 3 3.446 3 4 L 3 28 C 3 28.554 3.446 29 4 29 L 22.007812 29 A 5 5 0 0 1 21 26 A 5 5 0 0 1 26 21 A 5 5 0 0 1 29 22.007812 L 29 4 C 29 3.446 28.554 3 28 3 L 4 3 z "
     style="fill:#8959ab" />
  <path
     d="M 8 17 C 7.446 17 7 17.446 7 18 L 7 26 C 7 26.554 7.446 27 8 27 L 11 27 L 11 19 L 14 19 L 14 27 L 21.105469 27 A 5 5 0 0 1 21 26 A 5 5 0 0 1 23 22.007812 L 23 18 C 23 17.446 22.554 17 22 17 L 8 17 z "
     style="fill:#ffffff" />
  <rect
     fill="#fff"
     height="9"
     ry="1"
     width="20"
     x="6"
     y="5" />
  <circle
     cx="26"
     cy="26"
     style="fill:#d65532"
     r="4" />
</svg>
